X: 03059
T: MIKE SULLIVAN'S JIG
C: Bob McQuillen Cec 77
B: Bob's Note Book 03 #59
R: jig
%D:1977
Z: 2020 John Chambers <jc:trillian.mit.edu>
M: 6/8
L: 1/8
K: D
A2 \
| d2A def | a2f d2f | efe ede | f2d A2A |\
| d2A def | a2f d2f | e2f g2f | f3  e2A |
| d2A def | a2f d2f | efe ede | f2d A2A |\
| B3  c3  | def g2b | agf efe | d3- d  :|
|: fg \
| a2f dfg | a2f dfg | aba agf | gab efg |\
| a2f dfg | a2f d2A | Bcd edc | d3- d  :|
%%begintext align
%% Here's a Merry Christmas
%% to a real neat lad at New
%% England College who really
%% likes the music.
%%endtext
